X: 07071
T: MARIANNE'S REEL
C: Bob McQuillen 21 Mar 89
B: Bob's Note Book 7 #71
%R: reel
Z: 2020 John Chambers <jc:trillian.mit.edu>
M: C
L: 1/8
K: G
DE \
| GEDG BGBd | egdB AGED | GBdg edBG | AGAB d2Bd |
| eceg dBGB | dedB AGEG | DEGB dgeg | dBAB G2 :|
|: ga \
| baga bgeg | abge dega | bagb ageg | dBGB A2GE |
| DEGB AGBA | GBdg edgb | agbg e2ge | dBAB G2 :|
%%begintext align
%% Here's a tune for
%% Marianne Jewell of Vashon Island, WA. She's
%% a real fine Cape Breton-style fiddler, and I dearly
%% love those tunes she plays so well. I sincerely
%% hope this tune lays well on your fiddle, Marianne!
%%endtext

%%sep 1 1 500

%%sep 1 1 500

